X: 7335
T: Cliffs Of Dooneen, The
R: waltz
M: 3/4
K: Amixolydian
|:A Bd|e2 f3 a|f3 e d2|B2 A2 ^G2|A4 fg|
a2 b2 a2|f4 Ad|e2 d3 e|f4 fg|
a2 b3 a|fA- A2 d2|e2 fe de|f3 f fe|
d3 e fa|(3fgf (3efe d2|B2 A3 A|A3:|

